X: 1682
T: Magpie Jig
B: australian traditional tunes wiki
M:6/8
L:1/8
R: Jig
Q: 3/8=100
K:D
V:1 
|:FG|"D"ABA ABA|d2A AFG|ABA ABA|"A7"e2A AFG|
"D"ABA ABA|"Bm"d2A e2G|"D"fed "A7"ABc|1"D"d3-d:|2"D"d3-d2f||
"D"fed fed|"A7"e2AA2f|"D"fed fed|"Em"g2ee2f|
"D"fed fed|"G"gfe "A7"a2f|"D"fed "A7"ABc|"D"d2DD2||
% abcbook-tune_id 6342d53a585f85821cd6a94c


% abcbook-boost 0
% abcbook-tablature 
% abcbook-transpose 
% abcbook-lastupdated 1665324377717
% abcbook-soundfonts 
% abcbook-repeats 1
% NFF Book 2009

